X:107
T:Real Polkas(3). Le4.107, The
M:2/4
L:1/8
Q:1/4=100
B:L.Leadley MS#4 c1850
Z:Village Music Project, 2016 Ruairidh Greig
K:F
c|:ba g/f/e|(dc) .A.c|(cB) .G.d|(dc) .A.c|
ba g/f/e|dc .A.c|(cB) .G.e|1faf c:|2fa!fine!g||
|:G|Gc (f/e/^d/e/)|.g.f.d.=B|G=B (e/d/^c/d/)|.a.g .e.c|
.G.(E/G/) ed|(cE/G/) .e.d|(c=B/A/) GB|cec:|
|:(A/B/A) fA|eA a^g/a/|.b.A.a.A|.f.A (dc/B/)|
(A/B/A) (fA)|(G/A/G) dG|A/B/A fe|1dAd A:|2dAd"_DC"|]

